mini_fiction/frontend/src/images/markitup/subscript.svg

<svg viewbox="0 0 18 18">
  <path class="ql-fill" d="M15.5,15H13.861a3.858,3.858,0,0,0,1.914-2.975,1.8,1.8,0,0,0-1.6-1.751A1.921,1.921,0,0,0,12.021,11.7a0.50013,0.50013,0,1,0,.957.291h0a0.914,0.914,0,0,1,1.053-.725,0.81,0.81,0,0,1,.744.762c0,1.076-1.16971,1.86982-1.93971,2.43082A1.45639,1.45639,0,0,0,12,15.5a0.5,0.5,0,0,0,.5.5h3A0.5,0.5,0,0,0,15.5,15Z"/>
  <path class="ql-fill" d="M9.65,5.241a1,1,0,0,0-1.409.108L6,7.964,3.759,5.349A1,1,0,0,0,2.192,6.59178Q2.21541,6.6213,2.241,6.649L4.684,9.5,2.241,12.35A1,1,0,0,0,3.71,13.70722q0.02557-.02768.049-0.05722L6,11.036,8.241,13.65a1,1,0,1,0,1.567-1.24277Q9.78459,12.3777,9.759,12.35L7.316,9.5,9.759,6.651A1,1,0,0,0,9.65,5.241Z"/>
</svg>

<svg><path class="ql-fill" d="M15.5 15h-1.639a3.858 3.858 0 0 0 1.914-2.975 1.8 1.8 0 0 0-1.6-1.751 1.921 1.921 0 0 0-2.154 1.426.5.5 0 1 0 .957.291.914.914 0 0 1 1.053-.725.81.81 0 0 1 .744.762c0 1.076-1.17 1.87-1.94 2.43A1.456 1.456 0 0 0 12 15.5a.5.5 0 0 0 .5.5h3a.5.5 0 0 0 0-1zM9.65 5.241a1 1 0 0 0-1.409.108L6 7.964 3.759 5.349a1 1 0 0 0-1.567 1.243q.023.03.049.057L4.684 9.5l-2.443 2.85a1 1 0 0 0 1.469 1.357q.026-.027.049-.057L6 11.036l2.241 2.614a1 1 0 1 0 1.567-1.243q-.023-.03-.049-.057L7.316 9.5l2.443-2.849a1 1 0 0 0-.109-1.41z"/></svg>
